actions/22x22-light/edit-table-delete-row.svg

<svg xmlns="http://www.w3.org/2000/svg" viewBox="0 0 22 22">
 <defs id="defs3051">
   <style type="text/css" id="current-color-scheme">
     .ColorScheme-Text {
       color:#4d4d4d;
     }
     </style>
 </defs>
   <path
      style="fill:currentColor;fill-opacity:1;stroke:none"
      d="m3 3v15 1h16v-1-15h-1-14zm1 1h4v2h-4zm5 0h4v2h-4zm5 0h4v2h-3-1v-1.0996094zm-10 3h4v1h1v-1h4v1h1v-1h1 3v1 1 1 2 1 1 1h-3-1v-1h-1v1h-4v-1h-1v1h-4v-1-1-1-2-1-1zm0 9h3 1v1 1h-4zm5 0h4v1 1h-4v-1zm5 0h1 3v2h-4v-1z"
      class="ColorScheme-Text" />
   
 <defs id="defs3051">
   <style type="text/css" id="current-color-scheme">
     .ColorScheme-Text {
       color:#da4453;
     }
     </style>
 </defs>
   <path
      style="fill:currentColor;fill-opacity:1;stroke:none"
      d="m4 14h5.29297 4 4 .70703v-.70703-.29297h-.29297l-4-4h4.29297v-1h-14v1h .29297l4 4h-4.29297zm1.70703-5h2.58594l4 4h-2.58594zm4 0h2.58594l4 4h-2.58594z"
      class="ColorScheme-Text" />
   </svg>

<svg xmlns="http://www.w3.org/2000/svg" viewBox="0 0 22 22">
  <defs id="defs3051">
    <style type="text/css" id="current-color-scheme">
      .ColorScheme-Text {
        color:#4d4d4d;
      }
      </style>
  </defs>
 <path 
    style="fill:currentColor;fill-opacity:1;stroke:none" 
    d="M 3 3 L 3 18 L 3 19 L 19 19 L 19 18 L 19 3 L 18 3 L 4 3 L 3 3 z M 4 4 L 8 4 L 8 6 L 4 6 L 4 4 z M 9 4 L 13 4 L 13 6 L 9 6 L 9 4 z M 14 4 L 18 4 L 18 6 L 15 6 L 14 6 L 14 4.9003906 L 14 4 z M 4 7 L 8 7 L 8 8 L 9 8 L 9 7 L 13 7 L 13 8 L 14 8 L 14 7 L 15 7 L 18 7 L 18 8 L 18 9 L 18 10 L 18 12 L 18 13 L 18 14 L 18 15 L 15 15 L 14 15 L 14 14 L 13 14 L 13 15 L 9 15 L 9 14 L 8 14 L 8 15 L 4 15 L 4 14 L 4 13 L 4 12 L 4 10 L 4 9 L 4 8 L 4 7 z M 4 16 L 7 16 L 8 16 L 8 17 L 8 18 L 4 18 L 4 16 z M 9 16 L 13 16 L 13 17 L 13 18 L 9 18 L 9 17 L 9 16 z M 14 16 L 15 16 L 18 16 L 18 18 L 14 18 L 14 17 L 14 16 z "
    class="ColorScheme-Text"
    />  
  <path
     style="fill:#da4453"
     d="m 4,14 5.29297,0 4,0 4,0 L 18,14 18,13.29297 18,13 l -0.29297,0 -4,-4 L 18,9 18,8 4,8 l 0,1 0.29297,0 4,4 L 4,13 4,14 m 1.70703,-5 2.58594,0 4,4 -2.58594,0 -4,-4 m 4,0 2.58594,0 4,4 -2.58594,0 -4,-4" />
</svg>
